icon/gr/paypal.svg

<svg xmlns="http://www.w3.org/2000/svg" viewBox="0 0 24 24" height="1em" width="1em">
  <path fill="#003087" fill-rule="evenodd" d="M21.4945038,7.054125 C20.4250038,12.026625 17.0155038,14.658375 11.6050038,14.658375 L9.64300376,14.658375 L8.17975376,24.000375 L11.3620038,24.000375 C11.8217538,24.000375 12.2125038,23.665875 12.2845038,23.212125 L12.3220038,23.014125 L13.0540038,18.377625 L13.1012538,18.121875 C13.1725038,17.668125 13.5640038,17.333625 14.0230038,17.333625 L14.6042538,17.333625 C18.3640038,17.333625 21.3085038,15.805875 22.1687538,11.388375 C22.5137538,9.615375 22.3480038,8.128875 21.4945038,7.054125 M19.3172538,1.80975 C18.2057538,0.543 16.1972538,0 13.6270038,0 L6.16900376,0 C5.64325376,0 5.19625376,0.3825 5.11375376,0.90075 L2.00800376,20.59725 C1.94650376,20.98575 2.24725376,21.3375 2.64100376,21.3375 L7.24525376,21.3375 L8.40175376,14.0025 L8.36575376,14.232 C8.44825376,13.71375 8.89225376,13.33125 9.41725376,13.33125 L11.6050038,13.33125 C15.9040038,13.33125 19.2692538,11.58525 20.2525038,6.53475 C20.2817538,6.38475 20.3290038,6.0975 20.3290038,6.0975 C20.6080038,4.2285 20.3267538,2.96025 19.3172538,1.80975"/>
</svg>

<svg xmlns="http://www.w3.org/2000/svg" width="24" height="24"><path fill="#003087" fill-rule="evenodd" d="M21.495 7.054c-1.07 4.973-4.48 7.604-9.89 7.604H9.643L8.18 24h3.182c.46 0 .85-.334.923-.788l.037-.198.732-4.636.047-.256a.933.933 0 0 1 .922-.788h.581c3.76 0 6.705-1.528 7.565-5.946.345-1.773.179-3.26-.674-4.334M19.317 1.81C18.206.543 16.197 0 13.627 0H6.169c-.526 0-.973.383-1.055.9L2.008 20.598a.64.64 0 0 0 .633.74h4.604l1.157-7.335-.036.23c.082-.518.526-.9 1.051-.9h2.188c4.299 0 7.664-1.747 8.648-6.797.029-.15.076-.438.076-.438.279-1.869-.002-3.137-1.012-4.287"/></svg>
